X:1
T:蓝莲花
M:2/4
L:1/8
V:1
Q:1/4=90
K:C
|G,A,CDED2C|A,4z4|G,A,CDEG2D-|D4z4|
w: 没 有 什 么 能 够 阻|挡 |你 对 自 由 的 向 往| |
|zD2G,DDED|C4z4|zDDDG,A,CA,-|A,4z4|
w: 天 马 行 空 的 生|涯|你 的 心 了 无 牵 挂| |
|zF2FEDCE/2D/2|D4z4|zF2AGFED-|D4z4|
w: 穿 过 黑 暗 的 岁|月|也 曾 感 到 彷 徨| |
|zD2G,DDED|C4z4|zDDDG,A,CA,-|A,4z4|
w: 当 你 低 头 的 瞬|间|才 发 觉 脚 下 的 路|
|zGGGGGGG/2A/2|A4z4|zAAAcAAG-|G4z4|
w: 心 中 那 自 由 的 世|界|如 此 的 清 澈 高 远|
|zGGGGAcA-|A4z2GA|e8|d8|
w: 盛 开 着 永 不 凋 零|蓝 莲|花| |